X:575
L:1/8
M:4/4
K:D
 F/G/ | A>dA(F A/F/A/d/) AF | (A>Bd)F A2 A(d/c/) | B>dBA (TB/A/B/d/) BA | 
 (d/c/d/e/) (d/e/f/d/) (B2 B)f/a/ | (ba/f/) (af/e/) (fe/d/) ef | A>BdG (A2 A)(d/c/) | 
 .B.B .d.d .e.e Tf>e | d>B A/B/d/F/ E2 D || (f/g/) | a>baf (Ta/g/a/b/) af | 
 (a/g/Tf/e/) (d/e/f/g/) a2 af/a/ | b>d'ba (b/a/b/d') ba | (b/a/g/f/) (e/f/g/a/) (b2 b)(d/a/) | 
 (b/a/f/b/) (a/f/e/a/) (f/e/d/f/) (e/d/B/e/) | (d/B/)(A/B/) (d/c/d/)(F/ A2) Ad/c/ | 
 (TB/A/B/c/) (d/c/d/f/) (e/d/e/g/) Tf>e | (d/B/A/B/) (A/B/d/F/) TE2 D :| FG | A3 B AF d2 | 
 AF d2 AF d2 | DEFG AFdF | (A4 A2) dc | BdAd BdAd | BdAd BdAB | dfeg fedc | (B4 B2) fa | 
 b2 af AF E2 | af e2 FE D2 | fedB ABdF | (A4 A2) dc | BBgB ccac | ddba gfed | cBAc dABF | TE4 D2 :: 
 fg |{a} f4{a} f4 | afaf afaf | defg afbf | (a4 a2) fa |{c'} b4{c'} b4 | d'bd'b d'bc'a | 
 afef defa | (b4 b2) a2 | b'gb fadf | gbeg fade | fedB ABdF | (A4 A2) dc | .B2 .B2 .d2 .d2 | 
 .e2 .e2 Tf3 e | d3 B d3 F | TE4 D2 :|

